packages/icons/raw/imported/DevicesPhone.svg

<svg width="32" height="32" viewBox="0 0 32 32" fill="none" xmlns="http://www.w3.org/2000/svg">
<path d="M13.8983 10.3545L11.0265 7.48268C10.7599 7.21611 10.3171 7.22668 10.0375 7.50629L8.03777 9.50602C5.50634 12.0375 9.32836 16.8721 12.216 19.7598C15.0864 22.6301 19.9626 26.4937 22.494 23.9623L24.4938 21.9625C24.7734 21.6829 24.7839 21.2401 24.5174 20.9736L21.6455 18.1017C21.3789 17.8351 20.9362 17.8457 20.6565 18.1253L18.6568 20.125C18.6568 20.125 17.6933 20.1232 14.7596 17.2404C11.8259 14.3577 11.875 13.3432 11.875 13.3432L13.8747 11.3435C14.1543 11.0639 14.1649 10.6211 13.8983 10.3545Z" stroke="black" stroke-linecap="round" stroke-linejoin="round"/>
</svg>

<svg width="32" height="32" fill="none" xmlns="http://www.w3.org/2000/svg"><path d="m13.898 10.354-2.871-2.871c-.267-.267-.71-.256-.99.023l-2 2c-2.53 2.531 1.291 7.366 4.179 10.254 2.87 2.87 7.747 6.734 10.278 4.202l2-2c.28-.28.29-.722.023-.988l-2.872-2.872c-.266-.267-.709-.256-.988.023l-2 2s-.964-.002-3.897-2.885c-2.934-2.882-2.885-3.897-2.885-3.897l2-2c.28-.28.29-.722.023-.989Z" stroke="#000" stroke-linecap="round" stroke-linejoin="round"/></svg>
